X:1
T:Consolations I.
T:Consolations I.
T:Franz LISZT (1811 - 1886)
%%score { ( 1 2 ) ( 3 4 ) }
L:1/8
M:4/4
K:E
V:1 treble nm="Piano"
V:2 treble 
V:3 bass 
V:4 bass 
V:1
"^Andante con moto" z2 (.[B,EG]4 .[B,EB]2- | .[B,EB]2 .[B,EA]4 .[B,CF]2-) | %2
 .[B,CF]2 ([B,C]2 [B,E]2 [B,G]2) |!<(! (.B,2 ^A,2 .G!<)!.F.^A.A) | z2 .[B,EG]2 z2 .[B,E]2 | %5
 z2 .[B,EA]2 z2 .[B,CF]2 | B2 ([B,C]2 [B,E]2 [^A,G]2) | G4-!<(! G^^F^Ac!<)! | (e4 d2) z G | %9
 B4- B^ABc | (e4 d2) z G | B4- (B^ABc) |({f} e4 =d2) z =G | B4- BGA=c | (e4 =d2) z (=G | %15
 B4- B=GA^A) |"^a tempo" .!tenuto!B4 !tenuto!B4 | (!tenuto!B4 !tenuto!B4 | %18
!mp! z2)!<(! ([B,C]2 [B,E]2 [B,G]2)!<)! |!>(! (.B,2 ^A,2 .G!>)!.F.^A.A) | .!tenuto!B4 !tenuto!B4 | %21
 (.!tenuto!B4 !tenuto!B4 | z2)!<(! ([B,C]2 [B,E]2 [B,G]2)!<)! | (.B,2 ^A,2 [CEG]2 F>G) | %24
{G,-B,-E-G-} [G,B,EG]6 |] %25
V:2
 x8 | x8 | x8 | [EG]4 [=A,D]2 x2 | .!tenuto!B4 !tenuto!B4 | !tenuto!B4 !tenuto!B4 | x8 | %7
 [^A,C]4 x4 | x8 | x4 ^^F2 x2 | x8 | x4 ^^F2 x2 | x8 | x4 F2 x2 | x8 | x6 E2 | %16
 z2 .[B,EG]2 z2 .[B,E]2 | z2 .[B,EA]2 z2 .[B,CF]2 | x8 | [EG]4 [=A,D]2 x2 | %20
 z2 .[B,EG]2 z2 .[B,E]2 | z2 .[B,EA]2 z2 .[B,CF]2 | x8 | [EG]4 =A,2- [A,D]2 | x6 |] %25
V:3
 z2 (.[E,,B,,]4 .[G,,B,,]2- | .[G,,B,,]2 .[F,,B,,]4 .[A,,B,,]2-) | %2
 [A,,B,,]2 ([A,,B,,]2 [G,,B,,]2 [E,,C,]2) | (C,4 B,,2) z2 | z2 (.[E,,B,,]2 z2 .[G,,B,,]2 | %5
 z2 .[F,,B,,]2 z2 .[A,,B,,]2) | z2 ([A,,B,,]2 [G,,B,,]2 [E,,C,]2) | (E,4 D,2) z2 | %8
 z2[K:treble] (.[DGB]4 .[B,G]2) | z2[K:bass] .[G,E]2 .[D,C]2 z2 | z2[K:treble] (.[DGB]4 .[B,G]2) | %11
 z2[K:bass] (.[G,E]2 .[D,C]2) z2 | z2[K:treble] (.[=D=GB]4 .[B,G]2) | %13
 z2[K:bass] (.[=G,E]2 .[=D,=C]2) z2 | z2[K:treble] (.[=D=GB]4 .[B,G]2) | %15
 z2[K:bass] (.[=G,E]2 .[E,=C]2) .[=C,G,]2 | z2 (.[B,,G,]2 z2 .[G,,E,]2 | %17
 z2 .[F,,A,]2 z2 .[A,,F,]2) | z2 ([A,,B,,]2 [G,,B,,]2 [E,,C,]2) | (C,4 B,,2) z2 | %20
 z2 (!tenuto![E,,B,,]2 z2 !tenuto![=D,,B,,]2 | z2 !tenuto![C,,B,,]2 z2 !tenuto![A,,,B,,]2) | %22
 z2 (B,,2 G,,E,,D,,)C,, | C,4 B,,4 |{E,,B,,-} B,,6 |] %25
V:4
 x8 | x8 | x8 | F,,4 B,,2 x2 | x8 | x8 | x8 | D,,6 x2 | x2[K:treble] x6 | x2[K:bass] x6 | %10
 x2[K:treble] x6 | x2[K:bass] x6 | x2[K:treble] x6 | x2[K:bass] x6 | x2[K:treble] x6 | %15
 x2[K:bass] x6 | x8 | x8 | x8 | F,,4 B,,2 x2 | x8 | x8 | x2 A,,2 B,,2 E,2 | F,,4 B,,,4 | E,,6 |] %25

